X:1
T:The Charge of the Faithful
T:The Charge of the Faithful
T:H. W. Porter
T:Julia U. C. Donnahan, 1915
T:Public Domain Courtesy of the Cyber Hymnal™
T:Public Domain Courtesy of the Cyber Hymnal™
C:H. W. Porter
Z:Public Domain
Z:Courtesy of the Cyber Hymnal™
%%score ( 1 2 ) ( 3 4 )
L:1/8
Q:1/4=92
M:4/4
K:Ab
V:1 treble 
V:2 treble 
V:3 bass 
V:4 bass 
V:1
 E>E | [Ec]>[Ed] [Ec]>[DB] [CA]2 [EA]>[EA] | [FB]>[FA] [FA]>[DF] [CE]2 E>E | %3
w: 1.~Now, with|ev- ery heart a- flame Come the|hosts of God to- day, And we|
w: 2.~Join our|hap- py, hap- py throng, Will you|not en- list right now? Come, ye|
w: 3.~Hail, oh|hail that won- drous morn, When the|Sav- ior shall ap- pear, And His|
 [FA]>[FA] [FA]>[FA] [=EG]2 [FA]2 | [GB]6 E>E | [Ec]>[Fd] [Ec]>[DB] [CA]2 [_GB]>[Gc] | %6
w: pledge to Christ our heart and|hand; We will|make the wel- kin ring, Of the|
w: li- on- heart- ed, sin de-|fy; By the|power of God so strong We will|
w: glo- ry we shall sure- ly|see; Then our|ar- mor we’ll lay down, He the|
 [Fd]>[Fe] [Fd]>[Fc] [FB]2 [EB]>[EB] | [Ee]2 [CA]2 [EA]>[EA] [DG]>[DG] | [CA]6 z2 || %9
w: Sav- ior we will sing, Till His|praise re- sounds o’er ev- ery|land.|
w: tri- umph o- ver wrong, For His|cause we’ll dare to do and|die.|
w: faith- ful ones will crown, And His|praise ring thro’ e- ter- ni-|ty.|
"^Refrain" .[Ac]2 z2 [Ac] z/ [Ac]/ [EB]>[Ac] | [Ge]4 [EB]4 x4 | .A2 z2 [FA]>[CG] [FA]>[FB] | %12
w: Tramp, tramp, a might- y|ar- my!|March! For- ward at His|
w: |||
w: |||
 [=Ec]6 [Ec]>[Ec] x4 | [Fd]>[Fe] [Fd]>[Fc] [GB]2 [EB]>[EB] | [Ee]>[Ee] [Ee]>[Ec] [CA]2 [=DA]>[DB] | %15
w: word! We will|lift the cross on high, With our|shout we’ll rend the sky, On to|
w: |||
w: |||
 [Ec]>[Ec] [Ec]>[CA] [DB]2 [DB]>[DB] | [CA]6 |] %17
w: vic- tory in the name of the|Lord.|
w: ||
w: ||
V:2
 E>E | x8 | x6 E>E | x8 | x6 E>E | x8 | x8 | x8 | x8 || x8 | x12 | x8 | x12 | x8 | x8 | x8 | x6 |] %17
V:3
 E,>E, | [A,,A,]>[A,,A,] [A,,A,]>[A,,A,] [A,,A,]2 [C,A,]>[C,A,] | %2
w: ~ ~|~ ~ ~ ~ ~ ~ ~|
 [D,D]>[D,D] [D,D]>[D,A,] [A,,A,]2 [A,C]>[A,C] | [F,C]>[F,C] [F,C]>[F,C] [C,C]2 [F,C]2 | %4
w: ~ ~ ~ ~ ~ ~ ~|~ ~ ~ ~ ~ ~|
 E6 [E,G,]>[E,G,] | [A,,A,]>[A,,A,] [A,,A,]>[A,,A,] [A,,A,]2 [A,,A,]>[A,,E] | %6
w: ~ ~ ~|~ ~ ~ ~ ~ ~ ~|
 [B,,D]>[B,,F,] [B,,B,]>[C,=A,] [D,B,]2 [D,G,]>[D,G,] | [C,A,]2 [F,A,]2 [E,C]>[E,C] [E,B,]>[E,B,] | %8
w: ~ ~ ~ ~ ~ ~ ~|~ ~ ~ ~ ~ ~|
 [A,,A,]6 z2 || .[A,,A,E]2 [E,,E,]2 [A,,A,E] z/ [A,,A,E]/ [G,,G,E]>[A,,A,E] | %10
w: ~|Yes, ~ ~ ~ ~ ~|
 E4 [E,,E,]2 D4 [E,,E,]2 | .[F,,F,C]2 .[C,,C,]2 [F,,F,C]>[=E,,=E,C] [F,,F,C]>[D,,D,G,] | %12
w: might- y arm- y|~ now ~ ~ ~ ~|
 G,6 [G,,G,]2 [=E,,=F,]2 [C,G,]>[C,G,] | [B,,B,]>[B,,B,] [B,,B,]>[B,,B,] [E,B,]2 [D,G,]>[D,G,] | %14
w: ~ His word! * *||
 [C,A,]>[C,A,] [C,A,]>[C,A,] [F,A,]2 [F,A,]>[F,A,] | %15
w: |
 [E,A,]>[E,A,] [E,A,]>[E,A,] [E,A,]2 [E,G,]>[E,G,] | [A,,A,]6 |] %17
w: ||
V:4
 E,>E, | x8 | x8 | x8 | (E,2 B,2 G,2) x2 | x8 | x8 | x8 | x8 || x8 | [B,,B,]2 [G,,G,]2 x8 | x8 | %12
 [C,,C,]2 x10 | x8 | x8 | x8 | x6 |] %17

